X: 688
T: La l
L: 1/8
M: 2/4
K: F
c f e d [I:setbarnb 1]| 
c d A G | 
z c f d | 
c d A G | 
F D c f | 
e d c d | 
c A G A | 
G DF2 | 
A DF2 | 
z c f d | 
c d A G | 
F4 |]

@@@ Tune index: 9562
